X:1
T:Plin : Suite B
E:12
Z:Roger Ngaret (94-95)
R:plin
C:Trad.
S:
A:Bretagne
K:C
T:Ton simple
Q:1/4=150
M:4/4
L:1/16
K:Eb
c2e2 e2g2 g2g2 f4 | e2d2 e2d2 c4 c4 :: c2e2 e2g2 g2g2 f2g2 |\
a2f2 f2g2 a2b2 g4 | c2e2 e2g2 g2g2 f4 | e2d2 e2d2 c4 c4 :|
T:Bal
Q:3/8=80
M:9/8
L:1/16
g2f2B2 e4 d2c2 B4 | g2f2B2 e4 d2 c6 :|
Q:1/4=150
M:4/4
L:1/16
|: B2c2 d2f2 f2d2 e4 | c4 d2f2 f2d2 f4 | edc2 e4 d4 c4 :|
T:Ton double
Q:1/4=150
e2e2 d4 B4 c4 | e2e2 d2e2 d2B2 d4 :: c2e2 d2c2 d2e2 g4 |\
d4 d2g2 g2f2 e2d2 | c2e2 d2c2 d2e2 g4 | e2e2 d4 B4 c4 :|
